X:1
T:My Blue-Eyed Jane
M:4/4
L:1/8
K:D
 F| A B2 F- F4| d2 e B- B4| A2 B2 D E2 F-| F6 z F| A E2 A3 A2| B F2 B- B4|\
 B2 B c- c2 d2| e c2 A3 z F| A2 B F4 D| d2 e B4 F| A B2 D3 D F-| F6 z D|\
 E F2 D3 z D| E2 F D4 D| B2 B2 c c2 A-| A2 A2 B2 c2| d B2 d- d4| z2 AB dB AG|\
 F D2 F- F4| z2 D2 E2 F2| A F2 A- A4| z2 E2 F G2 A-| A4 z4| z4 z AB c|\
 d2 B2 d4-| d2 AB dB AG| F D2 F- F4| z2 D2 E2 F2| A2 F A- A4| z2 E2 G F2 D-|\
 D8| z4 z2 z||
